X:1
T:Lord Randal
M:3/4
L:1/4
K:C
D/2-E/2| G AG/2-A/2| B GA/2-G/2| E D E| D2D/2-E/2| G A G| B de/2-d/2|\
 B A G| A2D/2-E/2| G A A| B d d/2e/2| d A G| A2 D/2E/2| G A G| B A G|\
 E D E| D2||
